packages/icons/src/bell.svg

<svg width="15" height="15" viewBox="0 0 15 15" fill="none" xmlns="http://www.w3.org/2000/svg">
  <path
    fill-rule="evenodd"
    clip-rule="evenodd"
    d="M8.60124 1.25086C8.60124 1.75459 8.26278 2.17927 7.80087 2.30989C10.1459 2.4647 12 4.41582 12 6.79999V10.25C12 11.0563 12.0329 11.7074 12.7236 12.0528C12.931 12.1565 13.0399 12.3892 12.9866 12.6149C12.9333 12.8406 12.7319 13 12.5 13H8.16144C8.36904 13.1832 8.49997 13.4513 8.49997 13.75C8.49997 14.3023 8.05226 14.75 7.49997 14.75C6.94769 14.75 6.49997 14.3023 6.49997 13.75C6.49997 13.4513 6.63091 13.1832 6.83851 13H2.49999C2.2681 13 2.06664 12.8406 2.01336 12.6149C1.96009 12.3892 2.06897 12.1565 2.27638 12.0528C2.96708 11.7074 2.99999 11.0563 2.99999 10.25V6.79999C2.99999 4.41537 4.85481 2.46396 7.20042 2.3098C6.73867 2.17908 6.40036 1.75448 6.40036 1.25086C6.40036 0.643104 6.89304 0.150421 7.5008 0.150421C8.10855 0.150421 8.60124 0.643104 8.60124 1.25086ZM7.49999 3.29999C5.56699 3.29999 3.99999 4.86699 3.99999 6.79999V10.25L4.00002 10.3009C4.0005 10.7463 4.00121 11.4084 3.69929 12H11.3007C10.9988 11.4084 10.9995 10.7463 11 10.3009L11 10.25V6.79999C11 4.86699 9.43299 3.29999 7.49999 3.29999Z"
    fill="currentColor"
  />
</svg>

<svg xmlns="http://www.w3.org/2000/svg" width="15" height="15" fill="none"><path fill="currentColor" fill-rule="evenodd" d="M8.601 1.25a1.1 1.1 0 0 1-.8 1.06A4.5 4.5 0 0 1 12 6.8v3.45c0 .806.033 1.457.724 1.803A.5.5 0 0 1 12.5 13H8.161a1 1 0 1 1-1.323 0H2.5a.5.5 0 0 1-.224-.947c.691-.346.724-.997.724-1.803V6.8a4.5 4.5 0 0 1 4.2-4.49 1.1 1.1 0 1 1 1.401-1.06M7.5 3.3A3.5 3.5 0 0 0 4 6.8v3.5c0 .446.001 1.108-.3 1.7h7.6c-.301-.592-.3-1.254-.3-1.7V6.8a3.5 3.5 0 0 0-3.5-3.5" clip-rule="evenodd"/></svg>
